packages/core/assets/Icons/arrow_angle_down_left.svg

<svg viewBox="0 0 20 20" fill="none" xmlns="http://www.w3.org/2000/svg">
<path d="M6.52088 11.6667L14.1667 11.6667L14.1667 4.16669C14.1667 3.93058 14.2466 3.73266 14.4063 3.57294C14.566 3.41322 14.7639 3.33335 15 3.33335C15.2362 3.33335 15.4341 3.41322 15.5938 3.57294C15.7535 3.73266 15.8334 3.93058 15.8334 4.16669L15.8334 11.6667C15.8334 12.125 15.6702 12.5174 15.3438 12.8438C15.0174 13.1702 14.625 13.3334 14.1667 13.3334L6.52088 13.3334L8.91671 15.7292C9.08337 15.8959 9.17018 16.0938 9.17712 16.3229C9.18407 16.5521 9.10421 16.75 8.93754 16.9167C8.77087 17.0834 8.57296 17.1667 8.34379 17.1667C8.11462 17.1667 7.91671 17.0834 7.75004 16.9167L3.91671 13.0834C3.83338 13 3.77435 12.9097 3.73963 12.8125C3.7049 12.7153 3.68754 12.6111 3.68754 12.5C3.68754 12.3889 3.7049 12.2847 3.73963 12.1875C3.77435 12.0903 3.83338 12 3.91671 11.9167L7.77088 8.06252C7.93754 7.89585 8.13199 7.81599 8.35421 7.82294C8.57643 7.82988 8.77088 7.91669 8.93754 8.08335C9.09032 8.25002 9.17018 8.44447 9.17713 8.66669C9.18407 8.88891 9.10421 9.08335 8.93754 9.25002L6.52088 11.6667Z" fill="currentColor"/>
</svg>

<svg xmlns="http://www.w3.org/2000/svg" width="20" height="20" fill="none" viewBox="0 0 20 20">
  <path fill="#201F1F" d="M6.52 11.667h7.647v-7.5c0-.236.08-.434.24-.594.159-.16.357-.24.593-.24s.434.08.594.24c.16.16.24.358.24.594v7.5c0 .458-.164.85-.49 1.177-.327.326-.719.49-1.177.49H6.52l2.396 2.395a.85.85 0 0 1 .26.594.776.776 0 0 1-.24.594.811.811 0 0 1-.593.25.811.811 0 0 1-.594-.25l-3.833-3.834a.732.732 0 0 1-.177-.27.922.922 0 0 1-.052-.313c0-.111.017-.215.052-.313a.73.73 0 0 1 .177-.27L7.77 8.063a.763.763 0 0 1 .583-.24.839.839 0 0 1 .584.26.879.879 0 0 1 .24.584.763.763 0 0 1-.24.583L6.52 11.667Z"/>
</svg>
